X:1
T:Title
%%score { ( 1 4 ) | ( 2 3 ) }
L:1/8
M:4/4
K:Ab
V:1 treble nm="Grand Piano"
V:4 treble 
V:2 bass 
V:3 bass 
V:1
 z4 z2[Q:1/4=108] [A,CE]2 | [A,CE]2 [CEA]2 [A,EA]2 B2 | c2 c2 c2 [GB]2 | ce e2 e2 c2 |[M:3/4] B6 | %5
[M:1/4] [CE]2 |[M:4/4] [CE]2 [CEA]2 [A,EA]2 B2 | c2 c2 c2 [GB]2 | ce [Ee]2 [DB]2 [Ec]2 | [CA]6 z2 | %10
 e>e e2 e2 c2 | [FA]>[FA] [FA]2 [FA]2 c2 | E>E E2 z FAB |[M:3/4] c3 B c2 |[M:1/4] e2 | %15
[M:4/4] f2 e2 c2 [DGB]2 | [CA]2 [EAc]2 [DFA]2 F2 | E2 c2 c3 B |[M:3/4] [CA]6 |] %19
V:2
 z4 z2 A,,2 | A,,2 A,,2 C,2 [E,G,E]2 | [A,E]2 [A,EA]2 [A,EA]2 [E,E]2 | .E2 z2 z4[K:bass] | %4
[M:3/4] [E,G,E]6 |[M:1/4] [A,,A,]2 |[M:4/4] [A,,A,]2 A,,2 C,2 [E,G,E]2 | %7
 [A,E]2 [A,EA]2 [A,EA]2 [E,E]2 | .E2[K:bass] z2 z4 | [A,,A,]6 z2 | z4 [CA]2 z2 | %11
 [D,D]>[D,D] [D,D]2 [D,A,]2 [A,E]2 | z4 .C2 .C2 |[M:3/4] E6 |[M:1/4][K:treble] [A,CA]2 | %15
[M:4/4] [A,DA]2 [A,CA]2 [A,EA]2[K:bass] E,2 | F,2 C,2 D,2 [D,A,D]2 | %17
 [E,A,C]2 [E,A,E]2 [E,A,E]3 [E,G,D] |[M:3/4] [A,,A,]6 |] %19
V:3
 x8 | x8 | x8 | [A,A]-[A,CA] [A,CA]2 [A,CA]2[K:bass] [A,E]2 |[M:3/4] x6 |[M:1/4] x2 |[M:4/4] x8 | %7
 x8 | [A,A]-[A,CA][K:bass] [C,A,]2 [E,G,]2 [E,G,]2 | x8 | [A,CA]>[A,CA] [A,CA]2 A,2- [A,E]2 | x8 | %12
 [A,C]>[A,C] [A,C]2 A,-[A,D][A,E]-[A,B,E] |[M:3/4] A,3- [E,A,] A,2 |[M:1/4][K:treble] x2 | %15
[M:4/4] x6[K:bass] x2 | x8 | x8 |[M:3/4] x6 |] %19
V:4
 x8 | x8 | x8 | x8 |[M:3/4] x6 |[M:1/4] x2 |[M:4/4] x8 | x8 | x8 | x8 | x8 | x8 | z4 E2 z2 | %13
[M:3/4] x6 |[M:1/4] x2 |[M:4/4] x8 | x8 | x8 |[M:3/4] x6 |] %19

